lut/1D-BW-Bone.cube
LUT_1D_SIZE 64
0 0 0
0.013888888888889 0.013888888888889 0.019179894179894
0.027777777777778 0.027777777777778 0.038359788359788
0.041666666666667 0.041666666666667 0.057539682539683
0.055555555555556 0.055555555555556 0.076719576719577
0.069444444444445 0.069444444444445 0.095899470899471
0.083333333333333 0.083333333333333 0.115079365079365
0.097222222222222 0.097222222222222 0.134259259259259
0.111111111111111 0.111111111111111 0.153439153439153
0.125 0.125 0.172619047619048
0.138888888888889 0.138888888888889 0.191798941798942
0.152777777777778 0.152777777777778 0.210978835978836
0.166666666666667 0.166666666666667 0.23015873015873
0.180555555555556 0.180555555555556 0.249338624338624
0.194444444444444 0.194444444444444 0.268518518518518
0.208333333333333 0.208333333333333 0.287698412698413
0.222222222222222 0.222222222222222 0.306878306878307
0.236111111111111 0.236111111111111 0.326058201058201
0.25 0.25 0.345238095238095
0.263888888888889 0.263888888888889 0.364417989417989
0.277777777777778 0.277777777777778 0.383597883597883
0.291666666666667 0.291666666666667 0.402777777777778
0.305555555555555 0.305555555555555 0.421957671957672
0.319444444444444 0.319444444444444 0.441137566137566
0.333333333333333 0.33531746031746 0.458333333333333
0.347222222222222 0.354497354497354 0.472222222222222
0.361111111111111 0.373677248677249 0.486111111111111
0.375 0.392857142857143 0.5
0.388888888888889 0.412037037037037 0.513888888888889
0.402777777777778 0.431216931216931 0.527777777777778
0.416666666666667 0.450396825396825 0.541666666666667
0.430555555555555 0.469576719576719 0.555555555555556
0.444444444444444 0.488756613756614 0.569444444444444
0.458333333333333 0.507936507936508 0.583333333333333
0.472222222222222 0.527116402116402 0.597222222222222
0.486111111111111 0.546296296296296 0.611111111111111
0.5 0.56547619047619 0.625
0.513888888888889 0.584656084656085 0.638888888888889
0.527777777777778 0.603835978835979 0.652777777777778
0.541666666666667 0.623015873015873 0.666666666666667
0.555555555555556 0.642195767195767 0.680555555555556
0.569444444444444 0.661375661375661 0.694444444444444
0.583333333333333 0.680555555555555 0.708333333333333
0.597222222222222 0.69973544973545 0.722222222222222
0.611111111111111 0.718915343915344 0.736111111111111
0.625 0.738095238095238 0.75
0.638888888888889 0.757275132275132 0.763888888888889
0.652777777777778 0.776455026455026 0.777777777777778
0.672619047619047 0.791666666666667 0.791666666666667
0.694444444444444 0.805555555555555 0.805555555555555
0.716269841269841 0.819444444444444 0.819444444444444
0.738095238095238 0.833333333333333 0.833333333333333
0.759920634920635 0.847222222222222 0.847222222222222
0.781746031746032 0.861111111111111 0.861111111111111
0.803571428571429 0.875 0.875
0.825396825396825 0.888888888888889 0.888888888888889
0.847222222222222 0.902777777777778 0.902777777777778
0.869047619047619 0.916666666666666 0.916666666666666
0.890873015873016 0.930555555555556 0.930555555555556
0.912698412698413 0.944444444444444 0.944444444444444
0.93452380952381 0.958333333333333 0.958333333333333
0.956349206349206 0.972222222222222 0.972222222222222
0.978174603174603 0.986111111111111 0.986111111111111
1 1 1
