lut/3D-Color-Orange-Teal.cube
LUT_3D_SIZE 6
DOMAIN_MIN 0.0 0.0 0.0
DOMAIN_MAX 1.0 1.0 1.0
0.000000 0.000000 0.000000
0.277836 0.038972 0.000000
0.525536 0.117952 0.000000
0.763546 0.199435 0.000000
0.955291 0.261173 0.000000
1.000000 0.304845 0.000000
0.013153 0.121645 0.083101
0.262089 0.147341 0.030426
0.515984 0.203342 0.000000
0.757595 0.257664 0.000000
0.953552 0.300511 0.000000
1.000000 0.332952 0.000000
0.039673 0.271824 0.198947
0.253574 0.277928 0.177737
0.507103 0.304906 0.101350
0.752590 0.346777 0.000000
0.952483 0.386053 0.000000
1.000000 0.401160 0.000000
0.091096 0.419409 0.314458
0.264042 0.423438 0.300908
0.498817 0.435401 0.264286
0.748104 0.460609 0.175448
0.958648 0.478035 0.000000
1.000000 0.495979 0.000000
0.064851 0.604974 0.450996
0.280064 0.607782 0.441016
0.535119 0.614954 0.414069
0.779934 0.621210 0.360540
0.978454 0.613886 0.264408
1.000000 0.602411 0.000000
0.256291 0.835935 0.644190
0.413519 0.836027 0.645167
0.634821 0.839506 0.638727
0.863523 0.848569 0.603388
1.000000 0.827573 0.544884
1.000000 0.775631 0.423865
0.000000 0.122621 0.188144
0.196384 0.123720 0.162936
0.489693 0.174472 0.071290
0.736202 0.258305 0.000000
0.940215 0.315740 0.000000
1.000000 0.339330 0.000000
0.000000 0.195682 0.220279
0.200015 0.200015 0.200015
0.481727 0.228885 0.136904
0.736294 0.285893 0.000000
0.940642 0.343664 0.000000
1.000000 0.362066 0.000000
0.000000 0.308659 0.283513
0.210117 0.314336 0.270268
0.481514 0.331823 0.225193
0.735225 0.362951 0.113466
0.944823 0.397192 0.000000
1.000000 0.421363 0.000000
0.000000 0.442664 0.371710
0.225193 0.446632 0.361273
0.479744 0.456733 0.330205
0.733486 0.477699 0.265110
0.949798 0.492500 0.117372
1.000000 0.502586 0.000000
0.000000 0.618677 0.491829
0.224338 0.621271 0.483101
0.510979 0.627832 0.459388
0.766049 0.634424 0.411292
0.969482 0.626673 0.328801
1.000000 0.613977 0.111452
0.000000 0.842161 0.663081
0.336400 0.842039 0.663020
0.610742 0.843961 0.662593
0.845121 0.853086 0.629694
1.000000 0.835996 0.574670
1.000000 0.785855 0.464454
0.000000 0.267430 0.379614
0.000000 0.262699 0.370214
0.393713 0.274876 0.338140
0.701228 0.305791 0.263096
0.921935 0.352575 0.134615
1.000000 0.390417 0.000000
0.000000 0.308721 0.395026
0.000000 0.306950 0.386175
0.394995 0.315770 0.356481
0.694331 0.341741 0.290959
0.919371 0.379431 0.180270
1.000000 0.403967 0.000000
0.000000 0.390143 0.435309
0.000000 0.391638 0.426429
0.400000 0.400000 0.400000
0.685298 0.420569 0.350164
0.919615 0.441962 0.253788
1.000000 0.448615 0.000000
0.000000 0.499275 0.492134
0.000000 0.502190 0.486091
0.407721 0.511833 0.465644
0.689570 0.524773 0.422827
0.924620 0.535943 0.345373
1.000000 0.531212 0.117739
0.000000 0.652888 0.586755
0.000000 0.655116 0.580041
0.422370 0.659968 0.562066
0.719387 0.669123 0.526879
0.942504 0.662898 0.463355
1.000000 0.647303 0.330755
0.000000 0.860868 0.716426
0.000000 0.859983 0.713008
0.478523 0.858610 0.709682
0.787045 0.865080 0.694026
1.000000 0.858183 0.645960
1.000000 0.812375 0.555962
0.000000 0.413306 0.572045
0.000000 0.409979 0.567102
0.000000 0.407385 0.550072
0.593194 0.423651 0.513817
0.869993 0.457588 0.454444
1.000000 0.485603 0.370184
0.000000 0.439277 0.581231
0.000000 0.435798 0.576410
0.045930 0.435767 0.559960
0.593713 0.450050 0.525139
0.867247 0.480537 0.469734
1.000000 0.501305 0.382330
0.000000 0.494759 0.605554
0.000000 0.495399 0.600702
0.143343 0.499702 0.585626
0.594995 0.513756 0.554620
0.866484 0.535790 0.505730
1.000000 0.535027 0.397192
0.000000 0.579522 0.644526
0.000000 0.581109 0.640223
0.160586 0.587060 0.627161
0.600031 0.600031 0.600031
0.880613 0.610224 0.546838
1.000000 0.591394 0.416480
0.000000 0.702510 0.716823
0.000000 0.704585 0.712551
0.000000 0.710536 0.697658
0.609033 0.716823 0.667994
0.891905 0.721492 0.624079
1.000000 0.708736 0.531609
0.000000 0.893309 0.829068
0.000000 0.895445 0.820401
0.000000 0.892943 0.796872
0.639338 0.887388 0.781369
0.960113 0.894255 0.749599
1.000000 0.856565 0.681819
0.000000 0.555657 0.769284
0.000000 0.559197 0.766629
0.000000 0.558099 0.758297
0.411627 0.581292 0.738582
0.790005 0.611566 0.704463
1.000000 0.656703 0.673701
0.000000 0.577111 0.773892
0.000000 0.573602 0.771756
0.000000 0.575189 0.763241
0.420966 0.598016 0.743862
0.789761 0.626093 0.710719
1.000000 0.668299 0.681117
0.000000 0.612451 0.788540
0.000000 0.611505 0.786160
0.000000 0.616083 0.777737
0.430091 0.638056 0.759030
0.790585 0.662654 0.727687
1.000000 0.697688 0.698970
0.000000 0.672694 0.813565
0.000000 0.673335 0.811398
0.000000 0.677119 0.804105
0.392065 0.694453 0.786496
0.794217 0.718166 0.755886
1.000000 0.741451 0.721370
0.000000 0.754818 0.849149
0.000000 0.756802 0.847318
0.000000 0.764218 0.841123
0.366186 0.781247 0.826932
0.799954 0.800015 0.800015
1.000000 0.798032 0.738033
0.000000 0.893858 0.944762
0.000000 0.899199 0.943084
0.000000 0.910552 0.936858
0.000000 0.929595 0.917174
0.812985 0.931975 0.877592
1.000000 0.919219 0.831327
0.000000 0.691005 0.970092
0.000000 0.698085 0.968780
0.000000 0.708309 0.964660
0.048463 0.755154 0.951629
0.753689 0.813565 0.932494
0.978729 0.836515 0.908385
0.000000 0.699397 0.972869
0.000000 0.706203 0.971557
0.000000 0.716182 0.967529
0.000000 0.762173 0.954528
0.753292 0.819608 0.935515
0.979370 0.842588 0.911559
0.000000 0.715816 0.981567
0.000000 0.722316 0.980316
0.000000 0.733883 0.976562
0.000000 0.777340 0.963836
0.747158 0.835142 0.944518
0.981689 0.859281 0.920653
0.000000 0.747799 0.996918
0.000000 0.749905 0.996155
0.000000 0.756313 0.993652
0.000000 0.790097 0.983032
0.717128 0.858762 0.961486
0.986419 0.888396 0.937072
0.000000 0.805417 1.000000
0.000000 0.807889 1.000000
0.000000 0.815671 1.000000
0.000000 0.827024 1.000000
0.576257 0.887724 0.989441
0.993042 0.932982 0.962402
0.000000 0.899535 1.000000
0.000000 0.902892 1.000000
0.000000 0.913329 1.000000
0.000000 0.935210 1.000000
0.000000 0.969421 1.000000
1.000000 1.000000 1.000000
