lut/3D-Color-Orange-Teal.cube
LUT_3D_SIZE 16
DOMAIN_MIN 0.0 0.0 0.0
DOMAIN_MAX 1.0 1.0 1.0
0.000000 0.000000 0.000000
0.089509 0.004883 0.000000
0.185336 0.017243 0.000000
0.277836 0.038972 0.000000
0.362310 0.065095 0.000000
0.444099 0.091188 0.000000
0.525536 0.117952 0.000000
0.607141 0.145388 0.000000
0.688228 0.173617 0.000000
0.763546 0.199435 0.000000
0.831205 0.222263 0.000000
0.894072 0.242618 0.000000
0.955291 0.261173 0.000000
1.000000 0.277653 0.000000
1.000000 0.292180 0.000000
1.000000 0.304845 0.000000
0.002502 0.037507 0.020386
0.094301 0.041474 0.006592
0.185519 0.055818 0.000000
0.275669 0.073762 0.000000
0.360052 0.092958 0.000000
0.441932 0.114076 0.000000
0.523735 0.136965 0.000000
0.605158 0.162142 0.000000
0.686610 0.187625 0.000000
0.762203 0.211246 0.000000
0.830167 0.232242 0.000000
0.893400 0.251286 0.000000
0.954925 0.268528 0.000000
1.000000 0.284123 0.000000
1.000000 0.297856 0.000000
1.000000 0.309880 0.000000
0.010010 0.077455 0.050172
0.087800 0.081025 0.039307
0.179324 0.095155 0.016571
0.272221 0.111849 0.000000
0.356207 0.129488 0.000000
0.438300 0.147097 0.000000
0.520195 0.166690 0.000000
0.602258 0.187869 0.000000
0.684230 0.209903 0.000000
0.760281 0.230564 0.000000
0.828489 0.249027 0.000000
0.892332 0.265751 0.000000
0.954284 0.281346 0.000000
1.000000 0.295476 0.000000
1.000000 0.307866 0.000000
1.000000 0.318883 0.000000
0.013153 0.121645 0.083101
0.088563 0.124483 0.074708
0.167666 0.131167 0.061006
0.262089 0.147341 0.030426
0.351324 0.164126 0.000000
0.433814 0.182193 0.000000
0.515984 0.203342 0.000000
0.598688 0.221408 0.000000
0.681147 0.240269 0.000000
0.757595 0.257664 0.000000
0.826230 0.273106 0.000000
0.890898 0.287266 0.000000
0.953552 0.300511 0.000000
1.000000 0.312718 0.000000
1.000000 0.323491 0.000000
1.000000 0.332952 0.000000
0.017823 0.170840 0.120851
0.090944 0.173190 0.113344
0.168246 0.176425 0.103853
0.252476 0.185397 0.085756
0.343511 0.199405 0.053040
0.431556 0.215030 0.000000
0.514153 0.232029 0.000000
0.596368 0.252598 0.000000
0.678401 0.274907 0.000000
0.754757 0.289860 0.000000
0.823850 0.302464 0.000000
0.889433 0.314061 0.000000
0.952819 0.325139 0.000000
1.000000 0.335119 0.000000
1.000000 0.343999 0.000000
1.000000 0.351629 0.000000
0.024933 0.221897 0.159854
0.095827 0.223514 0.154086
0.171939 0.225895 0.146151
0.251041 0.229953 0.133577
0.336065 0.239353 0.112215
0.425330 0.252079 0.077150
0.513176 0.266636 0.009613
0.595941 0.282322 0.000000
0.677821 0.300938 0.000000
0.752987 0.319738 0.000000
0.821714 0.335546 0.000000
0.888273 0.345129 0.000000
0.952331 0.354009 0.000000
1.000000 0.362005 0.000000
1.000000 0.368902 0.000000
1.000000 0.374701 0.000000
0.039673 0.271824 0.198947
0.104829 0.273106 0.194675
0.176089 0.275029 0.187808
0.253574 0.277928 0.177737
0.333532 0.283268 0.162417
0.418524 0.292668 0.138430
0.507103 0.304906 0.101350
0.595727 0.318944 0.030396
0.677546 0.332921 0.000000
0.752590 0.346777 0.000000
0.821622 0.361151 0.000000
0.887907 0.376471 0.000000
0.952483 0.386053 0.000000
1.000000 0.392126 0.000000
1.000000 0.397162 0.000000
1.000000 0.401160 0.000000
0.060395 0.320775 0.237675
0.115816 0.321752 0.234440
0.181155 0.323522 0.228305
0.256748 0.325841 0.220188
0.334142 0.329320 0.208103
0.415412 0.336004 0.190188
0.500725 0.345586 0.164218
0.589319 0.357733 0.125429
0.676631 0.370855 0.058808
0.751431 0.380377 0.000000
0.821958 0.390692 0.000000
0.889525 0.402350 0.000000
0.953948 0.415381 0.000000
1.000000 0.424903 0.000000
1.000000 0.428290 0.000000
1.000000 0.430518 0.000000
0.078706 0.369268 0.275700
0.125917 0.370092 0.273014
0.186862 0.371496 0.267796
0.260075 0.373571 0.260502
0.336461 0.376501 0.250523
0.414252 0.380560 0.236454
0.497078 0.388495 0.216434
0.583154 0.398505 0.188998
0.669612 0.409644 0.149996
0.750210 0.419165 0.090364
0.822049 0.426551 0.000000
0.890837 0.434546 0.000000
0.956603 0.443397 0.000000
1.000000 0.453437 0.000000
1.000000 0.461646 0.000000
1.000000 0.462257 0.000000
0.091096 0.419409 0.314458
0.135531 0.420142 0.312139
0.193271 0.421454 0.307622
0.264042 0.423438 0.300908
0.340337 0.426123 0.292332
0.418341 0.429694 0.280461
0.498817 0.435401 0.264286
0.583886 0.444343 0.242191
0.668391 0.453132 0.213443
0.748104 0.460609 0.175448
0.822080 0.466712 0.120485
0.891783 0.472419 0.001221
0.958648 0.478035 0.000000
1.000000 0.483864 0.000000
1.000000 0.490700 0.000000
1.000000 0.495979 0.000000
0.094728 0.474769 0.355962
0.139376 0.475441 0.353857
0.198123 0.476722 0.349889
0.267979 0.478737 0.343175
0.346502 0.481239 0.335576
0.426398 0.484688 0.325109
0.507256 0.488991 0.311192
0.591669 0.496223 0.292576
0.674311 0.502678 0.269291
0.752682 0.507774 0.240085
0.825834 0.511589 0.202426
0.893278 0.514122 0.150729
0.960388 0.517632 0.049958
1.000000 0.520745 0.000000
1.000000 0.523339 0.000000
1.000000 0.526665 0.000000
0.082307 0.537285 0.401373
0.133944 0.537896 0.399329
0.197421 0.539147 0.395758
0.271427 0.541039 0.389441
0.353033 0.543450 0.381811
0.436805 0.546441 0.372351
0.520745 0.550164 0.359747
0.604456 0.554589 0.343816
0.686091 0.558465 0.323980
0.763485 0.561120 0.299809
0.835813 0.562554 0.269780
0.902739 0.562646 0.231876
0.963867 0.561334 0.180850
1.000000 0.562036 0.090730
1.000000 0.562463 0.000000
1.000000 0.561181 0.000000
0.064851 0.604974 0.450996
0.128176 0.605493 0.449287
0.200381 0.606409 0.446143
0.280064 0.607782 0.441016
0.364263 0.609613 0.434241
0.449683 0.611994 0.425452
0.535119 0.614954 0.414069
0.620325 0.618524 0.399512
0.703059 0.621118 0.381720
0.779934 0.621210 0.360540
0.851713 0.620203 0.334966
0.917906 0.617762 0.303624
0.978454 0.613886 0.264408
1.000000 0.608453 0.212345
1.000000 0.605798 0.123720
1.000000 0.602411 0.000000
0.081514 0.676417 0.505974
0.145632 0.676722 0.504784
0.219547 0.677302 0.502678
0.303075 0.678126 0.499702
0.390600 0.679225 0.496590
0.472053 0.681331 0.488563
0.555138 0.683894 0.478096
0.639246 0.686946 0.464546
0.724056 0.690425 0.447639
0.801785 0.689174 0.428321
0.872984 0.685664 0.405493
0.938445 0.680629 0.377966
0.998322 0.674037 0.344366
1.000000 0.665766 0.302159
1.000000 0.655756 0.246525
1.000000 0.648066 0.153841
0.153628 0.752407 0.569238
0.202487 0.752560 0.568780
0.268833 0.752773 0.568048
0.347387 0.753201 0.566979
0.430579 0.753872 0.565972
0.508232 0.755459 0.560876
0.585962 0.757778 0.551843
0.666072 0.760464 0.540398
0.748043 0.763577 0.525872
0.829526 0.765560 0.508202
0.899565 0.760037 0.488502
0.963928 0.752865 0.464271
1.000000 0.743740 0.434211
1.000000 0.732509 0.396796
1.000000 0.718929 0.349615
1.000000 0.702571 0.286656
0.256291 0.835935 0.644190
0.291112 0.835935 0.644282
0.344182 0.835935 0.644556
0.413519 0.836027 0.645167
0.490822 0.836301 0.646479
0.565820 0.837278 0.645960
0.634821 0.839506 0.638727
0.708064 0.842161 0.629480
0.784604 0.845182 0.617853
0.863523 0.848569 0.603388
0.936797 0.846494 0.586877
0.998871 0.838010 0.568078
1.000000 0.827573 0.544884
1.000000 0.814481 0.515312
1.000000 0.797726 0.476783
1.000000 0.775631 0.423865
0.000000 0.030365 0.061891
0.064332 0.037537 0.051606
0.170809 0.047089 0.026001
0.263706 0.071504 0.000000
0.344610 0.102998 0.000000
0.427710 0.129549 0.000000
0.510918 0.152743 0.000000
0.594293 0.176364 0.000000
0.677607 0.200046 0.000000
0.755215 0.221927 0.000000
0.824796 0.241306 0.000000
0.889158 0.258671 0.000000
0.951659 0.274510 0.000000
1.000000 0.288884 0.000000
1.000000 0.301457 0.000000
1.000000 0.312383 0.000000
0.000000 0.063386 0.076204
0.066468 0.066468 0.066468
0.165194 0.075898 0.049531
0.256962 0.094820 0.021759
0.342992 0.117800 0.000000
0.426490 0.142916 0.000000
0.509850 0.166537 0.000000
0.593408 0.188479 0.000000
0.676814 0.210605 0.000000
0.754543 0.231357 0.000000
0.824063 0.249638 0.000000
0.888731 0.265965 0.000000
0.951446 0.281010 0.000000
1.000000 0.294682 0.000000
1.000000 0.306706 0.000000
1.000000 0.317082 0.000000
0.000000 0.098512 0.093843
0.069947 0.102266 0.088106
0.163546 0.109407 0.073976
0.255802 0.122042 0.048707
0.341497 0.139620 0.010773
0.425086 0.161288 0.000000
0.508507 0.185336 0.000000
0.591943 0.208194 0.000000
0.675593 0.228519 0.000000
0.753292 0.247410 0.000000
0.822965 0.263890 0.000000
0.888060 0.278843 0.000000
0.951080 0.292546 0.000000
1.000000 0.305089 0.000000
1.000000 0.316045 0.000000
1.000000 0.325597 0.000000
0.000000 0.139773 0.120333
0.073365 0.142641 0.114504
0.158785 0.146334 0.103639
0.251347 0.157259 0.084138
0.340185 0.170443 0.051545
0.424414 0.186618 0.000305
0.507744 0.207187 0.000000
0.590875 0.230533 0.000000
0.673976 0.254185 0.000000
0.751705 0.270726 0.000000
0.821500 0.284947 0.000000
0.887144 0.298100 0.000000
0.950622 0.310246 0.000000
1.000000 0.321172 0.000000
1.000000 0.330694 0.000000
1.000000 0.338964 0.000000
0.001678 0.184543 0.150179
0.078767 0.186587 0.145174
0.160464 0.189731 0.135958
0.245823 0.195834 0.121645
0.335729 0.207095 0.097841
0.423835 0.220096 0.058259
0.507500 0.235355 0.000000
0.590997 0.254459 0.000000
0.673579 0.276677 0.000000
0.750240 0.298009 0.000000
0.819791 0.311833 0.000000
0.886198 0.322942 0.000000
0.950225 0.333196 0.000000
1.000000 0.342382 0.000000
1.000000 0.350286 0.000000
1.000000 0.356970 0.000000
0.007233 0.231815 0.183108
0.084474 0.233402 0.178805
0.163272 0.235813 0.170840
0.245426 0.239292 0.159609
0.330602 0.246983 0.141482
0.419501 0.258030 0.113863
0.507500 0.270970 0.068208
0.591119 0.285313 0.000000
0.673854 0.302831 0.000000
0.749874 0.320714 0.000000
0.818906 0.338170 0.000000
0.885557 0.352117 0.000000
0.950164 0.360540 0.000000
1.000000 0.367895 0.000000
1.000000 0.374151 0.000000
1.000000 0.379156 0.000000
0.019806 0.279423 0.217563
0.093721 0.280552 0.214115
0.167239 0.282597 0.207187
0.247898 0.285435 0.198093
0.328801 0.289982 0.183993
0.414099 0.298436 0.163027
0.502739 0.309697 0.131868
0.591058 0.322728 0.082185
0.673793 0.335821 0.000000
0.749447 0.348913 0.000000
0.819364 0.362463 0.000000
0.886259 0.377325 0.000000
0.950652 0.391272 0.000000
1.000000 0.396979 0.000000
1.000000 0.401617 0.000000
1.000000 0.405035 0.000000
0.039124 0.326848 0.252811
0.104585 0.327764 0.249912
0.173251 0.329412 0.244205
0.250797 0.331853 0.236088
0.329656 0.335119 0.224765
0.411231 0.341192 0.208408
0.497078 0.350225 0.184848
0.585595 0.361761 0.151095
0.672969 0.374090 0.099062
0.748409 0.383215 0.000000
0.819638 0.392981 0.000000
0.887755 0.403967 0.000000
0.952850 0.416144 0.000000
1.000000 0.429023 0.000000
1.000000 0.431983 0.000000
1.000000 0.433783 0.000000
0.061189 0.374182 0.288396
0.115572 0.375036 0.285832
0.179568 0.376440 0.281071
0.253635 0.378515 0.273655
0.331945 0.381353 0.264103
0.410651 0.385168 0.250828
0.493843 0.392676 0.232029
0.579980 0.402319 0.206607
0.666712 0.412970 0.171572
0.747280 0.422095 0.121736
0.819669 0.429267 0.025849
0.888975 0.436957 0.000000
0.955261 0.445197 0.000000
1.000000 0.454353 0.000000
1.000000 0.464668 0.000000
1.000000 0.465064 0.000000
0.074678 0.423682 0.325322
0.124575 0.424323 0.323125
0.185855 0.425727 0.318914
0.257267 0.427802 0.311925
0.335637 0.430335 0.303746
0.414801 0.433845 0.292424
0.495552 0.439185 0.277012
0.581170 0.447852 0.256077
0.665797 0.456428 0.229068
0.745571 0.463600 0.194156
0.819760 0.469490 0.145998
0.889860 0.475013 0.061128
0.957153 0.480415 0.000000
1.000000 0.485664 0.000000
1.000000 0.491707 0.000000
1.000000 0.498360 0.000000
0.077394 0.478401 0.365545
0.127169 0.479103 0.363561
0.189914 0.480385 0.359716
0.261509 0.482368 0.353185
0.341192 0.484932 0.345434
0.422461 0.488258 0.335241
0.504417 0.492592 0.321813
0.588861 0.499397 0.303960
0.671809 0.505638 0.281651
0.750454 0.510582 0.253819
0.823728 0.514305 0.218692
0.891447 0.516625 0.171359
0.958892 0.520043 0.091981
1.000000 0.522972 0.000000
1.000000 0.525200 0.000000
1.000000 0.527611 0.000000
0.055665 0.540398 0.409888
0.118441 0.541039 0.407965
0.187716 0.542260 0.404486
0.264317 0.544091 0.398383
0.346990 0.546532 0.390570
0.432349 0.549432 0.381231
0.517082 0.553063 0.369024
0.601648 0.557397 0.353491
0.683589 0.561120 0.334325
0.761288 0.563684 0.310796
0.833860 0.565026 0.281926
0.900969 0.565026 0.245762
0.962310 0.563653 0.198184
1.000000 0.564385 0.120302
1.000000 0.564599 0.000000
1.000000 0.562890 0.000000
0.022950 0.607416 0.458381
0.108492 0.607904 0.456733
0.188327 0.608789 0.453651
0.271824 0.610163 0.448707
0.358007 0.612024 0.442023
0.444739 0.614343 0.433448
0.531121 0.617273 0.422156
0.616999 0.620752 0.407965
0.700374 0.623407 0.390448
0.777615 0.623529 0.369848
0.849699 0.622431 0.344915
0.916136 0.619989 0.314397
0.976959 0.616052 0.276524
1.000000 0.610651 0.227207
1.000000 0.607935 0.147189
1.000000 0.604364 0.000000
0.034607 0.678218 0.512169
0.122866 0.678553 0.510948
0.205600 0.679103 0.508812
0.294011 0.679927 0.505882
0.384039 0.681056 0.502800
0.467506 0.683040 0.495521
0.551110 0.685603 0.485206
0.635676 0.688624 0.471962
0.720790 0.692073 0.455360
0.799283 0.691188 0.436286
0.870848 0.687617 0.413794
0.936645 0.682643 0.386694
0.996765 0.676020 0.353857
1.000000 0.667811 0.312749
1.000000 0.657740 0.259220
1.000000 0.650050 0.172885
0.124727 0.753811 0.573968
0.182193 0.753933 0.573480
0.254002 0.754177 0.572717
0.336919 0.754543 0.571618
0.423102 0.755215 0.570489
0.503624 0.756680 0.566369
0.581842 0.758968 0.557549
0.662501 0.761654 0.546166
0.744717 0.764767 0.532006
0.826810 0.767147 0.514519
0.897307 0.761685 0.495155
0.962005 0.754604 0.471443
1.000000 0.745602 0.441901
1.000000 0.734371 0.404974
1.000000 0.720821 0.358648
1.000000 0.704433 0.297429
0.234257 0.836973 0.647486
0.272618 0.836973 0.647547
0.329442 0.837003 0.647730
0.402380 0.837064 0.648280
0.482368 0.837278 0.649470
0.561456 0.838041 0.650141
0.630823 0.840269 0.642939
0.704524 0.842924 0.633814
0.781277 0.845975 0.622309
0.860472 0.849332 0.608057
0.934600 0.847776 0.591669
0.997040 0.839414 0.573144
1.000000 0.829038 0.550195
1.000000 0.816037 0.521080
1.000000 0.799405 0.483192
1.000000 0.777401 0.431250
0.000000 0.075624 0.124941
0.000000 0.077699 0.118227
0.130220 0.078401 0.106233
0.246677 0.086549 0.078431
0.334630 0.110262 0.046204
0.416419 0.138735 0.007752
0.497963 0.168399 0.000000
0.580865 0.198154 0.000000
0.665461 0.227420 0.000000
0.745113 0.247745 0.000000
0.816587 0.264530 0.000000
0.882597 0.279606 0.000000
0.946593 0.293034 0.000000
1.000000 0.304906 0.000000
1.000000 0.315221 0.000000
1.000000 0.323857 0.000000
0.000000 0.100404 0.134035
0.000000 0.100862 0.128298
0.131563 0.102815 0.117433
0.237858 0.111086 0.096712
0.327459 0.129000 0.071748
0.411872 0.151888 0.035828
0.496284 0.177279 0.000000
0.580987 0.204623 0.000000
0.665431 0.232914 0.000000
0.744930 0.255131 0.000000
0.816251 0.271550 0.000000
0.882383 0.285771 0.000000
0.946502 0.298680 0.000000
1.000000 0.310216 0.000000
1.000000 0.320012 0.000000
1.000000 0.328252 0.000000
0.000000 0.130800 0.148989
0.002564 0.130709 0.143130
0.133333 0.133333 0.133333
0.232547 0.140810 0.117983
0.323491 0.153262 0.095857
0.410742 0.170230 0.061616
0.496407 0.191379 0.001373
0.581353 0.215915 0.000000
0.665705 0.243015 0.000000
0.744381 0.268498 0.000000
0.815549 0.283574 0.000000
0.882078 0.296849 0.000000
0.946410 0.308873 0.000000
1.000000 0.319554 0.000000
1.000000 0.328588 0.000000
1.000000 0.336095 0.000000
0.000000 0.163180 0.164370
0.027039 0.164981 0.160983
0.135958 0.168673 0.154025
0.232425 0.174624 0.140200
0.323827 0.183841 0.119661
0.411048 0.196719 0.089570
0.496986 0.213596 0.038209
0.582025 0.234257 0.000000
0.666133 0.258213 0.000000
0.744350 0.282200 0.000000
0.814694 0.301854 0.000000
0.881621 0.313909 0.000000
0.946288 0.324712 0.000000
1.000000 0.334112 0.000000
1.000000 0.342046 0.000000
1.000000 0.348608 0.000000
0.000000 0.203342 0.188724
0.041657 0.205264 0.185824
0.139620 0.208103 0.178744
0.231022 0.212375 0.167086
0.322576 0.220371 0.149325
0.411383 0.230381 0.123293
0.497414 0.243473 0.084779
0.582422 0.259892 0.012543
0.666773 0.279606 0.000000
0.744594 0.299992 0.000000
0.814511 0.319768 0.000000
0.881285 0.336339 0.000000
0.946349 0.345617 0.000000
1.000000 0.353643 0.000000
1.000000 0.360296 0.000000
1.000000 0.365698 0.000000
0.000000 0.246860 0.216403
0.050416 0.248203 0.213382
0.143862 0.250645 0.207004
0.232609 0.253880 0.197116
0.319707 0.259525 0.182498
0.409369 0.268559 0.160800
0.497658 0.279484 0.129213
0.582971 0.292119 0.081971
0.667201 0.307744 0.000000
0.744625 0.323766 0.000000
0.814939 0.339788 0.000000
0.881895 0.356909 0.000000
0.946777 0.371038 0.000000
1.000000 0.377630 0.000000
1.000000 0.382879 0.000000
1.000000 0.386725 0.000000
0.000000 0.291569 0.246067
0.063142 0.292576 0.243259
0.149813 0.294530 0.237797
0.235111 0.297368 0.228885
0.318975 0.301030 0.216861
0.405585 0.308446 0.199069
0.494697 0.318181 0.173831
0.583215 0.329747 0.138003
0.667170 0.341741 0.083192
0.744015 0.353643 0.000000
0.815244 0.365820 0.000000
0.883299 0.379217 0.000000
0.948363 0.393927 0.000000
1.000000 0.405310 0.000000
1.000000 0.409125 0.000000
1.000000 0.411597 0.000000
0.000000 0.336980 0.277226
0.076509 0.337835 0.274693
0.156344 0.339452 0.269963
0.237797 0.341863 0.261814
0.320775 0.345098 0.251713
0.403632 0.350134 0.237186
0.490150 0.358373 0.216770
0.578973 0.368750 0.188754
0.666560 0.380133 0.149355
0.742977 0.388708 0.092927
0.815305 0.397803 0.000000
0.884520 0.407630 0.000000
0.950622 0.418372 0.000000
1.000000 0.430396 0.000000
1.000000 0.438453 0.000000
1.000000 0.439490 0.000000
0.013977 0.382818 0.309606
0.091096 0.383551 0.307378
0.163912 0.385016 0.303166
0.241184 0.387121 0.295811
0.322820 0.389899 0.286870
0.403876 0.393530 0.274693
0.487556 0.400153 0.257847
0.574212 0.409033 0.235294
0.661189 0.419104 0.205203
0.742061 0.427619 0.165316
0.815244 0.434516 0.107271
0.885435 0.441657 0.000000
0.952667 0.449012 0.000000
1.000000 0.456764 0.000000
1.000000 0.466041 0.000000
1.000000 0.469917 0.000000
0.032166 0.431128 0.344121
0.100801 0.431800 0.342168
0.170504 0.433051 0.338384
0.245640 0.435218 0.331823
0.326360 0.437812 0.323522
0.407843 0.441199 0.312840
0.489693 0.445991 0.298528
0.575830 0.454170 0.279393
0.660883 0.462257 0.254856
0.741054 0.468940 0.224125
0.815549 0.474464 0.183749
0.886442 0.479866 0.123964
0.954376 0.484871 0.000000
1.000000 0.489540 0.000000
1.000000 0.494057 0.000000
1.000000 0.500542 0.000000
0.028412 0.484932 0.382208
0.100740 0.485603 0.380468
0.172641 0.486885 0.376959
0.249454 0.488899 0.370916
0.330877 0.491524 0.362860
0.414801 0.494759 0.353094
0.498482 0.499031 0.340398
0.583612 0.505180 0.323766
0.667170 0.511070 0.302831
0.746181 0.515709 0.277287
0.819883 0.519097 0.245426
0.887877 0.521233 0.204257
0.956054 0.524590 0.142641
1.000000 0.527276 0.000000
1.000000 0.528832 0.000000
1.000000 0.529717 0.000000
0.000000 0.546014 0.424933
0.081453 0.546624 0.423194
0.166476 0.547814 0.419806
0.250126 0.549615 0.414191
0.335210 0.552056 0.406043
0.423560 0.554833 0.397101
0.510460 0.558312 0.385443
0.596033 0.562524 0.370520
0.678950 0.566003 0.352209
0.757168 0.568353 0.330022
0.830167 0.569512 0.302953
0.897673 0.569451 0.269535
0.959380 0.567926 0.226841
1.000000 0.568597 0.162417
1.000000 0.568536 0.000000
1.000000 0.566217 0.000000
0.000000 0.611810 0.471595
0.056580 0.612268 0.469978
0.162570 0.613123 0.467048
0.255436 0.614466 0.462287
0.346288 0.616236 0.455940
0.435767 0.618555 0.447700
0.523552 0.621393 0.436835
0.610529 0.624842 0.422980
0.695247 0.627710 0.406104
0.773312 0.627710 0.386175
0.845975 0.626551 0.362249
0.912902 0.624079 0.333288
0.974121 0.620081 0.297642
1.000000 0.614618 0.252140
1.000000 0.611902 0.182406
1.000000 0.607996 0.000000
0.000000 0.681575 0.523186
0.062257 0.681880 0.522026
0.176547 0.682429 0.519951
0.274846 0.683253 0.516930
0.370672 0.684321 0.513725
0.458900 0.686091 0.507836
0.543633 0.688624 0.497932
0.628992 0.691646 0.485206
0.714626 0.695094 0.469245
0.794553 0.694759 0.450446
0.866880 0.691341 0.428534
0.933257 0.686366 0.402380
0.993866 0.679774 0.370642
1.000000 0.671534 0.331334
1.000000 0.661433 0.280797
1.000000 0.653712 0.202884
0.028595 0.756374 0.582574
0.132509 0.756466 0.582025
0.223148 0.756680 0.581170
0.316136 0.757076 0.579980
0.407996 0.757656 0.578698
0.495003 0.758846 0.576165
0.574212 0.761135 0.567590
0.655665 0.763821 0.556603
0.738521 0.766873 0.542779
0.821897 0.769955 0.525750
0.893156 0.764736 0.506950
0.958495 0.757778 0.483955
1.000000 0.748959 0.455482
1.000000 0.737850 0.419715
1.000000 0.724300 0.374670
1.000000 0.707881 0.316075
0.183474 0.838956 0.653468
0.232059 0.838956 0.653468
0.299168 0.838895 0.653559
0.379950 0.838926 0.653925
0.465675 0.839109 0.654902
0.551843 0.839567 0.656947
0.623346 0.841703 0.650599
0.697780 0.844358 0.641657
0.775082 0.847410 0.630426
0.854704 0.850797 0.616510
0.930419 0.850126 0.600275
0.993622 0.841917 0.582177
1.000000 0.831724 0.559777
1.000000 0.818906 0.531395
1.000000 0.802457 0.494606
1.000000 0.780667 0.444373
0.000000 0.122621 0.188144
0.000000 0.123812 0.183810
0.017578 0.118990 0.176089
0.196384 0.123720 0.162936
0.314000 0.132387 0.138247
0.404059 0.150729 0.108217
0.489693 0.174472 0.071290
0.573785 0.201053 0.009339
0.657496 0.229862 0.000000
0.736202 0.258305 0.000000
0.807645 0.283879 0.000000
0.874693 0.304234 0.000000
0.940215 0.315740 0.000000
1.000000 0.325322 0.000000
1.000000 0.333196 0.000000
1.000000 0.339330 0.000000
0.000000 0.143587 0.194491
0.000000 0.141726 0.190738
0.044068 0.139712 0.183719
0.197116 0.143618 0.171450
0.307652 0.151095 0.149966
0.399207 0.165896 0.123201
0.486488 0.186191 0.089174
0.571710 0.210086 0.033509
0.656123 0.236637 0.000000
0.735836 0.263310 0.000000
0.807614 0.287724 0.000000
0.874601 0.309606 0.000000
0.940307 0.320653 0.000000
1.000000 0.330022 0.000000
1.000000 0.337530 0.000000
1.000000 0.343297 0.000000
0.000000 0.165805 0.204959
0.000000 0.165499 0.201328
0.066773 0.165805 0.194675
0.198154 0.169131 0.183597
0.301915 0.175967 0.165621
0.394385 0.188083 0.143069
0.482734 0.204837 0.113436
0.568994 0.225437 0.069215
0.655299 0.248051 0.000000
0.736080 0.271824 0.000000
0.807767 0.294774 0.000000
0.874784 0.316655 0.000000
0.940337 0.329656 0.000000
1.000000 0.338293 0.000000
1.000000 0.345312 0.000000
1.000000 0.350500 0.000000
0.000000 0.195682 0.220279
0.000000 0.195773 0.216800
0.075074 0.196689 0.210330
0.200015 0.200015 0.200015
0.299626 0.206363 0.185336
0.392218 0.215915 0.165042
0.481727 0.228885 0.136904
0.569451 0.245365 0.095796
0.655848 0.264988 0.017670
0.736294 0.285893 0.000000
0.807980 0.306340 0.000000
0.875303 0.326848 0.000000
0.940642 0.343664 0.000000
1.000000 0.351507 0.000000
1.000000 0.357671 0.000000
1.000000 0.362066 0.000000
0.000000 0.228489 0.235996
0.000000 0.229465 0.233494
0.089418 0.231418 0.228702
0.202823 0.235172 0.220310
0.300481 0.240482 0.206882
0.393072 0.248142 0.187961
0.482277 0.258610 0.162387
0.569940 0.271977 0.126833
0.656397 0.288518 0.070283
0.736355 0.305974 0.000000
0.808194 0.323064 0.000000
0.876158 0.341009 0.000000
0.941375 0.359380 0.000000
1.000000 0.369360 0.000000
1.000000 0.374426 0.000000
1.000000 0.377905 0.000000
0.000000 0.266819 0.257816
0.000000 0.268070 0.255741
0.101778 0.270359 0.251804
0.206149 0.273533 0.243961
0.300328 0.277775 0.231998
0.392828 0.284825 0.215213
0.483101 0.293706 0.192111
0.570489 0.304540 0.161440
0.656580 0.317998 0.117891
0.736049 0.331884 0.041871
0.808194 0.345586 0.000000
0.877165 0.360174 0.000000
0.942992 0.375860 0.000000
1.000000 0.391547 0.000000
1.000000 0.395453 0.000000
1.000000 0.397864 0.000000
0.000000 0.308659 0.283513
0.000000 0.309728 0.281590
0.112062 0.311559 0.277531
0.210117 0.314336 0.270268
0.301762 0.317815 0.259617
0.390906 0.323369 0.245090
0.481514 0.331823 0.225193
0.570886 0.341497 0.198306
0.656580 0.352361 0.163027
0.735225 0.362951 0.113466
0.808164 0.373632 0.015900
0.878050 0.385046 0.000000
0.944823 0.397192 0.000000
1.000000 0.410529 0.000000
1.000000 0.420233 0.000000
1.000000 0.421363 0.000000
0.000000 0.351720 0.311009
0.000000 0.352575 0.309148
0.122042 0.354162 0.305303
0.214817 0.356634 0.298680
0.303838 0.359716 0.289036
0.390417 0.363806 0.276616
